build/category/AcuringFutureOutline.svg

<svg xmlns="http://www.w3.org/2000/svg" fill="none" viewBox="0 0 24 24" focusable="false"><path d="M0 0H24V24H0z"/><path fill="#74767B" fill-rule="evenodd" d="M15 19.7L9 19.7C8.06112 19.7 7.3 18.9389 7.3 18L7.3 15.7991L16.7 15.7991L16.7 18C16.7 18.9389 15.9389 19.7 15 19.7ZM16.7 14.4988L7.3 14.4988L7.3 6.06384C7.3 5.12496 8.06112 4.36384 9 4.36384L15 4.36384C15.9389 4.36384 16.7 5.12496 16.7 6.06384L16.7 14.4988ZM15 3.06384C16.6569 3.06384 18 4.40699 18 6.06384L18 18C18 19.6569 16.6569 21 15 21L9 21C7.34315 21 6 19.6569 6 18L6 6.06384C6 4.40699 7.34315 3.06384 9 3.06384L15 3.06384ZM11.4453 11.6741C11.7487 11.8245 12.1214 11.7149 12.2528 11.4028C12.4933 10.8317 12.6263 10.2042 12.6263 9.54567C12.6263 8.90357 12.4999 8.29099 12.2706 7.73144C12.1412 7.41563 11.7657 7.30341 11.4599 7.45499C11.1241 7.62144 11.0071 8.0383 11.131 8.39202C11.2575 8.75313 11.3263 9.14137 11.3263 9.54567C11.3263 9.96176 11.2534 10.3608 11.1198 10.7308C10.9917 11.0855 11.1073 11.5066 11.4453 11.6741ZM14.5608 12.5263C14.4201 12.8433 14.0403 12.9604 13.7296 12.8064C13.3976 12.6419 13.2747 12.2337 13.4184 11.8922C13.7222 11.1706 13.8901 10.3778 13.8901 9.54569C13.8901 8.72644 13.7273 7.9452 13.4324 7.23256C13.2912 6.89161 13.4149 6.48588 13.7455 6.322C14.0576 6.16728 14.4392 6.28617 14.5786 6.60541C14.9719 7.50584 15.1901 8.50029 15.1901 9.54569C15.1901 10.6067 14.9654 11.6153 14.5608 12.5263ZM10.1099 9.56448C10.1099 9.92347 9.81892 10.2145 9.45994 10.2145C9.10095 10.2145 8.80994 9.92347 8.80994 9.56448C8.80994 9.2055 9.10095 8.91448 9.45994 8.91448C9.81892 8.91448 10.1099 9.2055 10.1099 9.56448ZM9.45334 17.101C9.09429 17.101 8.80322 17.3921 8.80322 17.7511C8.80322 18.1102 9.09429 18.4013 9.45334 18.4013L14.5467 18.4013C14.9057 18.4013 15.1968 18.1102 15.1968 17.7511C15.1968 17.3921 14.9057 17.101 14.5467 17.101L9.45334 17.101Z"/></svg>

<svg xmlns="http://www.w3.org/2000/svg" fill="none" viewBox="0 0 24 24" focusable="false"><path fill="#74767B" fill-rule="evenodd" d="M15 19.7H9c-.94 0-1.71-.77-1.71-1.7v-2.21h9.41V18c0 .93-.77 1.7-1.7 1.7m1.7-5.21H7.29V6.06c0-.94.77-1.7 1.71-1.7h6c.93 0 1.7.76 1.7 1.7zM15 3.06c1.65 0 3 1.34 3 3V18c0 1.65-1.35 3-3 3H9c-1.66 0-3-1.35-3-3V6.06c0-1.66 1.34-3 3-3zm-3.56 8.61c.3.15.68.04.81-.27.24-.57.37-1.2.37-1.86 0-.64-.12-1.25-.35-1.81-.13-.32-.51-.43-.81-.28-.34.17-.46.58-.33.94.12.36.19.75.19 1.15 0 .42-.07.82-.21 1.19-.12.35-.01.77.33.94m3.12.85c-.15.32-.52.44-.84.28-.33-.16-.45-.57-.31-.91.31-.72.48-1.52.48-2.35 0-.82-.17-1.6-.46-2.31-.14-.34-.02-.75.31-.91.31-.16.69-.04.83.28.4.9.61 1.9.61 2.94 0 1.06-.22 2.07-.62 2.98M10.1 9.56c0 .36-.29.65-.65.65-.35 0-.64-.29-.64-.65s.29-.65.64-.65c.36 0 .65.29.65.65m-.65 7.54c-.36 0-.65.29-.65.65s.29.65.65.65h5.09c.36 0 .65-.29.65-.65s-.29-.65-.65-.65z"/></svg>
